X:1
T:The Rhyme of the Chivalrous Shark
M:3/4
L:1/4
K:G
 D/2D/2| G G G| G A G| F D2-| D z D| A A A| A B A| G3| z B B| c c c|\
 E z c/2c/2| B B B| D2 B/2B/2| A A A| D E F| G3-| G2||
